X: 151
T: 4. Les Carmes
T: les Carmes
B: Robert Landrin "Potpourri fran\,cois des contre-danse ancienne tel quil se danse chez la Reine ..." 1760 p.15 #1 dance 05 #4
S: http://memory.loc.gov/cgi-bin/query/D?musdibib:2:./temp/~ammem_EbRS:
Z: 2014 John Chambers <jc:trillian.mit.edu>
N: The rhythms are mismatched between the two strains.
M: 2/4
L: 1/16
K: G
% - - - - - - - - - - - - - - - - - - - - - - - - -
|:\
G3A BABG | c4 c2dc | B2AB cBAG | AGFE D2D2 |\
G3A BABG | c4 c2dc | B2AB cBAB | G4- G4 :|
K:Gm
|: "2.f."B2c2 |\
d4 g4 | d3ed2c2 | B2d2 edcB | A2G2B2c2 |\
d4 g4 | d3ed2c2 | B2d2 edcB | A4 B2A2 |
G2G2 ^FGAF | G2G2B2A2 | G2G2 ^FGAF | G4 B2A2 |\
G2G2 ^FGAF | G2G2 B2A2 | G2G2 ^FGAF | G4 |]
% - - - - - - - - - - - - - - - - - - - - - - - - -

%%sep 1 1 500
%%sep 1 1 500
